X: 29183
T: New Centenary
R: reel
M: 4/4
K: Amajor
f^g|a2 ^ga ba ^ga|fd Ad f2 f^g|a2 ^ga ba ^ga|c2 c4 ef|
g2 fg ag fg|ag fg e2 ef|g2 fg ag fg|fd AG F2 DE|F2 AF BF Ac|
dc de d2 (3ABc)|dc dc ed cd|BG D=C, B,2 ^CB,|
A,C, EF Ac e^g|a^g ab a2 (3efg)|^ge fd ec dB|A6 cB|

